app/dist/common/images/ermenegildo-zegna-n-v.svg

<svg height="18" viewBox="0 0 18 18" width="18" xmlns="http://www.w3.org/2000/svg"><path d="m0 9a9 9 0 1 1 18 0 9 9 0 0 1 -18 0z" fill="#181b1e"/><path d="m12.73 10.36c-.98 1.38-1.55 1.85-2.02 2.3-.38.37-.69.34-1.32.34h-1.97c4.94-8.44 0 .1 4.94-8.35l-.25-.65h-6.21l-.9 3.5.28.14c.94-1.34 1.5-1.91 1.92-2.34.34-.36.69-.3 1.25-.3h1.84c.02 0 .04.01.04.03l-5.33 8.32.25.65h6.42l1.33-3.5z" fill="#f0f3fa"/></svg>

<!-- by TradingView --><svg width="18" height="18" viewBox="0 0 18 18" xmlns="http://www.w3.org/2000/svg"><path d="M0 9a9 9 0 1 1 18 0A9 9 0 0 1 0 9Z" fill="#181B1E"/><path d="M12.73 10.36c-.98 1.38-1.55 1.85-2.02 2.3-.38.37-.69.34-1.32.34H7.42c4.94-8.44 0 .1 4.94-8.35L12.11 4H5.9L5 7.5l.28.14C6.22 6.3 6.78 5.73 7.2 5.3c.34-.36.69-.3 1.25-.3h1.84c.02 0 .04.01.04.03L5 13.35l.25.65h6.42L13 10.5l-.27-.14Z" fill="#F0F3FA"/></svg>
